X:18
T:La valse-vienne [ok]
R:
S:
N:
A:Champagne
G:
O:France
Z:<anamnese@laposte.net>
M:3/4
L:1/8
Q:1/4=135
K:F
C2 D>C A2 | F2 E4 | C2 D>C B2 | G2 F4 | C2 D>C c2 | A2 G4 | C2 CC CC DE F4 :|
[M:6/8] C2 | A2 A c3 | c3 F2F | A3 A3 | (3CCC (3DEF G3 | B2B d3d | A2 G B3B3 | BAB cBG | F6 z C2 :|
B/c/BA f2 F | G/A/GG F3 | B/c/BA f2c | c/dc/d GA B2 :|
